T: Tarantella
M: 6/8
L: 1/8
K: Amin
|: "Am" a2 a e2 e | a2 a e2 e | ede "F" f2 f | fgf "C" e2 e |efe "G" d2 d | ded "Am" c2 c | cdc "Em" B2 B | BcB "Am" A3 :||: A2 B cBc | "F" dcB "Am" c2 c | ABc "G" B2 B | "Em" dcB "Am" A2 A |A2 B cBc | "F" dcB "Am" c2 c | ABc "G" B2 B | "Em" dcB "Am" A3 :|e2 e a2 a | e2 e ede | f2 f fgf | e2 e efe |d2 d ded | c2 c cdc | B2 B BcB | A3 :|cBc dcB | c2 c ABc | B2 B dcB | A2 A A2 B | cBc dcB | c2 c ABc | B2 B dcB | A3 :|e2 e a2 a | e2 e ede | f2 f fgf | e2 e efe |d2 d ded | c2 c cdc | B2 B BcB | A3 :|ece g2 g | gag f2 f | fgf e3 | e2 d cGc | ece g3 | g2 a bag | fed c3- | c3 :|]
